X: 6375
T: Castle Bray
R: strathspey
M: 4/4
K: Amajor
A2 (3Bcd edcA|A,B,=CE DB,=G,B,|A,2 (3B,=CD ED^CD|
EAce dB=GB|A2 (3Bcd edcA|A,B,=CE DB,=G,B,|
A,B,=CD EA^ce|dB=GB A2 Ad|ceac dcBA|GABa gedB|
ceac dcBA|GABd cAAB|ceac dcBA|GABc d2 fg|

